X: 132013
T: The DUKES DANG OWER HIS DADDY
Q: "Scotch Jig."
R: Jig.
%R: jig
B: James Kerr "Merry Melodies" v.1 p.32 s.0 #13
Z: 2016 John Chambers <jc:trillian.mit.edu>
M: 6/8
L: 1/8
K: D
(3(uA/B/c/ |\
d2)vA FED | EFE cBc | vd2vA GFE | FDD D2(vf/e/ |\
d2)vA FED | EFE cBc | d2A GFE | FDD D2 :|
|: uA |\
dcd Bcd | ve2vd cBA | dcd efg | fdd def |\
g2B Bcd | e2d c2(3(A/B/c/ | d2)A GFE | FDD D2 :|

%%sep 1 1 500
%%sep 1 1 500

